src/assets/protocols/satlayer.svg

<svg width="128" height="128" viewBox="0 0 128 128" fill="none" xmlns="http://www.w3.org/2000/svg">
<path d="M63.9127 109L0 79.9524L17.4586 72L63.9555 93.2366L110.685 72L128 79.8621L63.9127 109Z" fill="#FFE600"/>
<path d="M0 49L64.0907 20L80.9874 27.6672L36.5113 47.928L43.1155 51.0747L87.863 30.7871L128 49L63.9555 78L46.5373 70.1019L93.3092 48.9099L86.9938 46.0279L40.1585 67.2095L0 49Z" fill="#FFE600"/>
</svg>

<svg xmlns="http://www.w3.org/2000/svg" viewBox="0 0 128 128"><path fill="#ffe600" d="M63.913 109 0 79.952 17.459 72l46.497 21.237L110.685 72 128 79.862z"/><path fill="#ffe600" d="m0 49 64.09-29 16.897 7.667-44.476 20.261 6.604 3.147 44.748-20.288L128 49 63.956 78l-17.419-7.898L93.31 48.91l-6.315-2.882L40.159 67.21z"/></svg>
